web/packages/design/src/ResourceIcon/assets/clari.svg

<svg width="72" height="72" viewBox="0 0 72 72" fill="none" xmlns="http://www.w3.org/2000/svg">
<path d="M69.8651 17.0269L47.9727 22.9736C48.8583 27.0809 49.325 31.4357 49.325 36.0048C49.325 40.5739 48.8547 44.9251 47.9727 49.0361L69.8651 54.9829C71.2653 49.0508 72.0002 42.55 72.0002 36.0086C72.0002 29.4672 71.2653 22.9588 69.8651 17.0269Z" fill="#00D7B8"/>
<path d="M14.4317 10.8813L0 36.0014L22.84 18.8632C20.6496 15.5796 17.7979 12.8759 14.4317 10.8813Z" fill="#5F3AD7"/>
<path d="M14.4317 61.1261L0 36.0024L22.84 53.1406C20.6496 56.428 17.7979 59.1316 14.4317 61.1261Z" fill="#5F3AD7"/>
<path d="M40.7606 5.42041L0 36.0041L47.9746 22.9729C46.5708 16.4535 44.1121 10.5509 40.7606 5.42041Z" fill="#0280FF"/>
<path d="M40.7606 66.5852L0 36.0015L47.9746 49.0329C46.5708 55.5559 44.1121 61.4584 40.7606 66.5852Z" fill="#0280FF"/>
<path d="M49.3308 36.0016C49.3308 31.4325 48.8604 27.0813 47.9784 22.9702L0 36.0016L47.9746 49.033C48.8641 44.9181 49.3308 40.578 49.3308 36.0016Z" fill="white"/>
</svg>

<svg xmlns="http://www.w3.org/2000/svg" width="72" height="72" fill="none" viewBox="0 0 72 72"><path fill="#00d7b8" d="m69.865 17.027-21.892 5.947c.885 4.107 1.352 8.462 1.352 13.03 0 4.57-.47 8.921-1.352 13.032l21.892 5.947C71.265 49.05 72 42.55 72 36.009s-.735-13.05-2.135-18.982"/><path fill="#5f3ad7" d="M14.432 10.881 0 36.001l22.84-17.138a26 26 0 0 0-8.408-7.982m0 50.245L0 36.002l22.84 17.139a26 26 0 0 1-8.408 7.985"/><path fill="#0280ff" d="M40.76 5.42 0 36.004l47.975-13.031C46.57 16.453 44.112 10.55 40.76 5.42"/><path fill="#0280ff" d="M40.76 66.585 0 36.002l47.975 13.03c-1.404 6.524-3.863 12.426-7.214 17.553"/><path fill="#fff" d="M49.33 36.002c0-4.57-.47-8.92-1.352-13.032L0 36.002l47.975 13.031c.89-4.115 1.356-8.455 1.356-13.031"/></svg>
